;FLAVOR:Marlin
;TIME:994
;Filament used: 0.608236m
;Layer height: 0.2
;MINX:79.013
;MINY:79.018
;MINZ:0.2
;MAXX:140.975
;MAXY:140.985
;MAXZ:4
;Generated with Cura_SteamEngine 4.3.0
M140 S60
M105
M190 S60
M104 S200
M105
M109 S200
M82 ;absolute extrusion mode
M201 X500.00 Y500.00 Z100.00 E5000.00 ;Setup machine max acceleration
M203 X500.00 Y500.00 Z10.00 E50.00 ;Setup machine max feedrate
M204 P500.00 R1000.00 T500.00 ;Setup Print/Retract/Travel acceleration
M205 X8.00 Y8.00 Z0.40 E5.00 ;Setup Jerk
M220 S100 ;Reset Feedrate
M221 S100 ;Reset Flowrate

G28 ;Home

G92 E0 ;Reset Extruder
G1 Z2.0 F3000 ;Move Z Axis up
G1 X10.1 Y20 Z0.28 F5000.0 ;Move to start position
G1 X10.1 Y200.0 Z0.28 F1500.0 E15 ;Draw the first line
G1 X10.4 Y200.0 Z0.28 F5000.0 ;Move to side a little
G1 X10.4 Y20 Z0.28 F1500.0 E30 ;Draw the second line
G92 E0 ;Reset Extruder
G1 Z2.0 F3000 ;Move Z Axis up

G92 E0
G92 E0
G1 F1500 E-1.4
;LAYER_COUNT:20
;LAYER:0
M107
G0 F6000 X87.928 Y88.236 Z0.2
;TYPE:SKIRT
G1 F1500 E0
G1 F1200 X88.13 Y88.036 E0.00945
G1 X88.385 Y87.791 E0.02122
G1 X89.194 Y87.04 E0.05793
G1 X89.324 Y86.922 E0.06377
G1 X89.819 Y86.477 E0.08591
G1 X90.259 Y86.101 E0.10516
G1 X90.457 Y85.941 E0.11363
G1 X90.703 Y85.748 E0.12402
G1 X90.888 Y85.607 E0.13176
G1 X90.952 Y85.559 E0.13442
G1 X91.67 Y85.02 E0.16428
G1 X91.8 Y84.924 E0.16966
G1 X92.333 Y84.536 E0.19159
G1 X92.803 Y84.212 E0.21057
G1 X93.044 Y84.055 E0.22014
G1 X93.378 Y83.846 E0.23324
G1 X94.324 Y83.277 E0.26996
G1 X94.467 Y83.192 E0.27549
G1 X95.059 Y82.848 E0.29827
G1 X95.545 Y82.582 E0.31669
G1 X95.737 Y82.483 E0.32388
G1 X96.027 Y82.339 E0.33465
G1 X96.334 Y82.192 E0.34597
G1 X96.429 Y82.147 E0.34946
G1 X97.144 Y81.813 E0.37571
G1 X97.288 Y81.747 E0.38098
G1 X97.955 Y81.447 E0.40531
G1 X98.466 Y81.232 E0.42375
G1 X98.676 Y81.15 E0.43124
G1 X98.984 Y81.036 E0.44217
G1 X99.186 Y80.964 E0.4493
G1 X99.272 Y80.933 E0.45234
G1 X100.07 Y80.656 E0.48043
G1 X100.198 Y80.612 E0.48494
G1 X100.924 Y80.37 E0.51039
G1 X101.505 Y80.195 E0.53057
G1 X101.721 Y80.136 E0.53802
G1 X101.987 Y80.067 E0.54716
G1 X102.198 Y80.015 E0.55439
G1 X102.3 Y79.99 E0.55788
G1 X103.18 Y79.782 E0.58796
G1 X103.317 Y79.75 E0.59263
G1 X103.999 Y79.598 E0.61587
G1 X104.636 Y79.476 E0.63745
G1 X104.871 Y79.438 E0.64536
G1 X105.123 Y79.4 E0.65384
G1 X105.391 Y79.363 E0.66284
G1 X105.489 Y79.35 E0.66613
G1 X106.358 Y79.238 E0.69527
G1 X106.504 Y79.22 E0.70016
G1 X107.172 Y79.143 E0.72253
G1 X107.806 Y79.089 E0.74369
G1 X108.069 Y79.074 E0.75245
G1 X108.293 Y79.063 E0.75991
G1 X108.539 Y79.054 E0.7681
G1 X108.666 Y79.05 E0.77232
G1 X109.545 Y79.028 E0.80157
G1 X109.685 Y79.026 E0.80623
G1 X110.336 Y79.018 E0.82788
G1 X110.932 Y79.027 E0.8477
G1 X111.218 Y79.039 E0.85723
G1 X111.499 Y79.054 E0.86659
G1 X111.721 Y79.069 E0.87399
G1 X111.829 Y79.077 E0.87759
G1 X112.668 Y79.142 E0.90558
G1 X112.826 Y79.155 E0.91085
G1 X113.554 Y79.222 E0.93516
G1 X114.146 Y79.293 E0.955
G1 X114.418 Y79.333 E0.96414
G1 X114.711 Y79.38 E0.97401
G1 X114.94 Y79.42 E0.98174
G1 X115.022 Y79.435 E0.98451
G1 X115.844 Y79.585 E1.01231
G1 X115.98 Y79.61 E1.0169
G1 X116.696 Y79.75 E1.04117
G1 X117.356 Y79.901 E1.06369
G1 X117.598 Y79.964 E1.07201
G1 X117.879 Y80.041 E1.0817
G1 X118.911 Y80.339 E1.11742
G1 X119.062 Y80.384 E1.12266
G1 X119.752 Y80.594 E1.14665
G1 X120.369 Y80.802 E1.16831
G1 X120.585 Y80.882 E1.17597
G1 X120.829 Y80.975 E1.18466
G1 X121.073 Y81.072 E1.19339
G1 X121.15 Y81.103 E1.19615
G1 X121.972 Y81.437 E1.22566
G1 X122.135 Y81.505 E1.23153
G1 X122.756 Y81.769 E1.25398
G1 X123.281 Y82.009 E1.27318
G1 X123.545 Y82.138 E1.28295
G1 X123.872 Y82.304 E1.29515
G1 X124.835 Y82.815 E1.33141
G1 X124.994 Y82.901 E1.33742
G1 X125.592 Y83.231 E1.36014
G1 X126.075 Y83.514 E1.37876
G1 X126.283 Y83.643 E1.3869
G1 X126.616 Y83.858 E1.40008
G1 X127.544 Y84.481 E1.43726
G1 X127.689 Y84.58 E1.44309
G1 X128.249 Y84.969 E1.46577
G1 X128.724 Y85.318 E1.48538
G1 X128.962 Y85.503 E1.4954
G1 X129.252 Y85.737 E1.5078
G1 X130.019 Y86.376 E1.541
G1 X130.13 Y86.469 E1.54582
G1 X130.726 Y86.979 E1.57191
G1 X131.29 Y87.498 E1.5974
G1 X131.609 Y87.812 E1.61229
G1 X131.774 Y87.977 E1.62005
G1 X132.366 Y88.585 E1.64827
G1 X132.464 Y88.687 E1.65298
G1 X132.984 Y89.235 E1.6781
G1 X133.498 Y89.816 E1.70391
G1 X133.81 Y90.195 E1.72023
G1 X133.939 Y90.355 E1.72707
G1 X134.469 Y91.024 E1.75546
G1 X134.573 Y91.157 E1.76107
G1 X134.999 Y91.712 E1.78434
G1 X135.362 Y92.213 E1.80492
G1 X135.527 Y92.455 E1.81466
G1 X135.712 Y92.737 E1.82588
G1 X136.272 Y93.615 E1.86052
G1 X136.359 Y93.753 E1.86594
G1 X136.741 Y94.372 E1.89013
G1 X137.021 Y94.853 E1.90865
G1 X137.149 Y95.086 E1.91749
G1 X137.341 Y95.451 E1.9312
G1 X137.844 Y96.454 E1.96852
G1 X137.925 Y96.619 E1.97464
G1 X138.212 Y97.216 E1.99667
G1 X138.463 Y97.777 E2.01711
G1 X138.566 Y98.026 E2.02607
G1 X138.686 Y98.329 E2.03691
G1 X139.07 Y99.341 E2.07291
G1 X139.133 Y99.512 E2.07897
G1 X139.376 Y100.186 E2.1028
G1 X139.563 Y100.752 E2.12263
G1 X139.639 Y101.005 E2.13142
G1 X139.724 Y101.303 E2.14172
G1 X139.778 Y101.503 E2.14861
G1 X139.795 Y101.569 E2.15088
G1 X140.012 Y102.393 E2.17922
G1 X140.049 Y102.537 E2.18417
G1 X140.227 Y103.252 E2.20867
G1 X140.335 Y103.731 E2.22501
G1 X140.375 Y103.929 E2.23172
G1 X140.452 Y104.35 E2.24596
G1 X140.502 Y104.659 E2.25637
G1 X140.512 Y104.725 E2.25859
G1 X140.641 Y105.554 E2.28649
G1 X140.664 Y105.707 E2.29164
G1 X140.762 Y106.401 E2.31495
G1 X140.827 Y106.963 E2.33377
G1 X140.849 Y107.21 E2.34202
G1 X140.872 Y107.527 E2.35259
G1 X140.884 Y107.727 E2.35925
G1 X140.889 Y107.819 E2.36232
G1 X140.934 Y108.691 E2.39136
G1 X140.941 Y108.843 E2.39642
G1 X140.969 Y109.584 E2.42108
G1 X140.975 Y110.224 E2.44237
G1 X140.97 Y110.468 E2.45049
G1 X140.962 Y110.705 E2.45837
G1 X140.952 Y110.943 E2.4663
G1 X140.948 Y111.045 E2.46969
G1 X140.905 Y111.883 E2.4976
G1 X140.896 Y112.035 E2.50266
G1 X140.848 Y112.771 E2.5272
G1 X140.792 Y113.367 E2.54711
G1 X140.764 Y113.6 E2.55491
G1 X140.715 Y113.961 E2.56703
G1 X140.543 Y115.079 E2.60465
G1 X140.514 Y115.257 E2.61065
G1 X140.401 Y115.919 E2.63299
G1 X140.282 Y116.518 E2.6533
G1 X140.221 Y116.785 E2.66241
G1 X140.163 Y117.025 E2.67062
G1 X140.107 Y117.247 E2.67823
G1 X140.079 Y117.354 E2.68191
G1 X139.86 Y118.187 E2.71056
G1 X139.817 Y118.347 E2.71607
G1 X139.625 Y119.035 E2.73983
G1 X139.443 Y119.623 E2.7603
G1 X139.347 Y119.905 E2.77021
G1 X139.229 Y120.234 E2.78183
G1 X138.858 Y121.22 E2.81687
G1 X138.797 Y121.38 E2.82257
G1 X138.54 Y122.032 E2.84588
G1 X138.262 Y122.676 E2.86921
G1 X138.059 Y123.108 E2.88508
G1 X137.942 Y123.349 E2.89399
G1 X137.53 Y124.173 E2.92464
G1 X137.459 Y124.313 E2.92986
G1 X137.155 Y124.9 E2.95184
G1 X136.844 Y125.459 E2.97312
G1 X136.705 Y125.693 E2.98217
G1 X136.537 Y125.968 E2.99289
G1 X135.954 Y126.887 E3.02909
G1 X135.864 Y127.025 E3.03457
G1 X135.489 Y127.597 E3.05732
G1 X135.143 Y128.095 E3.07748
G1 X134.966 Y128.335 E3.0874
G1 X134.744 Y128.626 E3.09958
G1 X134.085 Y129.46 E3.13493
G1 X133.987 Y129.581 E3.14011
G1 X133.551 Y130.117 E3.16309
G1 X133.089 Y130.649 E3.18653
G1 X132.764 Y131 E3.20244
G1 X132.574 Y131.201 E3.21163
G1 X131.944 Y131.848 E3.24167
G1 X131.833 Y131.96 E3.24692
G1 X131.35 Y132.442 E3.26961
G1 X130.824 Y132.934 E3.29357
G1 X130.448 Y133.263 E3.31018
G1 X130.249 Y133.433 E3.31889
G1 X129.629 Y133.95 E3.34574
G1 X129.518 Y134.041 E3.35051
G1 X128.917 Y134.529 E3.37626
G1 X128.416 Y134.913 E3.39726
G1 X128.183 Y135.081 E3.40681
G1 X127.899 Y135.279 E3.41832
G1 X127.012 Y135.877 E3.45391
G1 X126.871 Y135.97 E3.45952
G1 X126.299 Y136.343 E3.48224
G1 X125.788 Y136.657 E3.50218
G1 X125.554 Y136.792 E3.51117
G1 X125.244 Y136.964 E3.52296
G1 X124.279 Y137.48 E3.55936
G1 X124.122 Y137.563 E3.56526
G1 X123.488 Y137.889 E3.58897
G1 X122.945 Y138.149 E3.609
G1 X122.701 Y138.258 E3.61789
G1 X122.376 Y138.397 E3.62964
G1 X121.395 Y138.798 E3.66489
G1 X121.227 Y138.865 E3.67091
G1 X120.547 Y139.13 E3.69518
G1 X119.972 Y139.336 E3.7155
G1 X119.761 Y139.405 E3.72288
G1 X119.499 Y139.487 E3.73201
G1 X119.222 Y139.57 E3.74163
G1 X119.14 Y139.594 E3.74447
G1 X118.35 Y139.824 E3.77184
G1 X118.184 Y139.872 E3.77758
G1 X117.491 Y140.062 E3.80148
G1 X116.912 Y140.203 E3.8213
G1 X116.649 Y140.26 E3.83026
G1 X116.402 Y140.311 E3.83864
G1 X116.179 Y140.354 E3.8462
G1 X116.075 Y140.374 E3.84972
G1 X115.211 Y140.532 E3.87893
G1 X115.04 Y140.561 E3.8847
G1 X114.374 Y140.672 E3.90716
G1 X113.781 Y140.755 E3.92707
G1 X113.538 Y140.782 E3.93521
G1 X113.281 Y140.807 E3.94379
G1 X112.995 Y140.832 E3.95334
G1 X112.882 Y140.842 E3.95712
G1 X112.103 Y140.902 E3.9831
G1 X111.957 Y140.912 E3.98797
G1 X111.187 Y140.961 E4.01363
G1 X110.575 Y140.983 E4.034
G1 X110.323 Y140.985 E4.04238
G1 X109.966 Y140.982 E4.05426
G1 X108.865 Y140.955 E4.09089
G1 X108.694 Y140.949 E4.09658
G1 X108.021 Y140.922 E4.11898
G1 X107.448 Y140.884 E4.13808
G1 X107.178 Y140.859 E4.1471
G1 X106.799 Y140.817 E4.15978
G1 X105.671 Y140.673 E4.1976
G1 X105.497 Y140.65 E4.20344
G1 X104.851 Y140.557 E4.22515
G1 X104.261 Y140.455 E4.24506
G1 X103.986 Y140.4 E4.25439
G1 X103.627 Y140.323 E4.2666
G1 X102.55 Y140.07 E4.3034
G1 X102.386 Y140.03 E4.30901
G1 X101.745 Y139.869 E4.331
G1 X101.206 Y139.718 E4.34961
G1 X100.974 Y139.647 E4.35768
G1 X100.68 Y139.553 E4.36795
G1 X100.407 Y139.461 E4.37753
G1 X100.303 Y139.425 E4.38119
G1 X99.496 Y139.144 E4.40961
G1 X99.359 Y139.096 E4.41444
G1 X98.698 Y138.856 E4.43783
G1 X97.995 Y138.573 E4.46303
G1 X97.564 Y138.382 E4.47871
G1 X97.356 Y138.287 E4.48632
G1 X96.583 Y137.925 E4.51471
G1 X96.452 Y137.862 E4.51954
G1 X95.775 Y137.534 E4.54457
G1 X95.206 Y137.238 E4.5659
G1 X95.027 Y137.138 E4.57272
G1 X94.741 Y136.973 E4.5837
G1 X93.779 Y136.397 E4.62099
G1 X93.645 Y136.315 E4.62622
G1 X93.045 Y135.944 E4.64968
G1 X92.474 Y135.566 E4.67246
G1 X92.248 Y135.406 E4.68167
G1 X92.014 Y135.235 E4.69131
G1 X91.168 Y134.602 E4.72645
G1 X91.04 Y134.505 E4.73179
G1 X90.463 Y134.06 E4.75603
G1 X89.971 Y133.657 E4.77718
G1 X89.759 Y133.473 E4.78652
G1 X89.501 Y133.242 E4.79803
G1 X88.717 Y132.517 E4.83355
G1 X88.596 Y132.404 E4.83906
G1 X88.086 Y131.918 E4.86249
G1 X87.665 Y131.494 E4.88236
G1 X87.473 Y131.29 E4.89168
G1 X87.232 Y131.025 E4.90359
G1 X86.517 Y130.214 E4.93955
G1 X86.398 Y130.078 E4.94556
G1 X85.946 Y129.548 E4.96873
G1 X85.589 Y129.106 E4.98763
G1 X85.434 Y128.904 E4.9961
G1 X85.245 Y128.65 E5.00663
G1 X85.12 Y128.477 E5.01373
G1 X85.069 Y128.406 E5.01663
G1 X84.539 Y127.66 E5.04707
G1 X84.451 Y127.535 E5.05215
G1 X84.053 Y126.958 E5.07547
G1 X83.63 Y126.295 E5.10162
G1 X83.392 Y125.891 E5.11722
G1 X83.297 Y125.726 E5.12355
G1 X82.864 Y124.961 E5.15279
G1 X82.798 Y124.843 E5.15729
G1 X82.467 Y124.241 E5.18014
G1 X82.163 Y123.646 E5.20236
G1 X82.048 Y123.403 E5.2113
G1 X81.916 Y123.113 E5.2219
G1 X81.476 Y122.109 E5.25836
G1 X81.413 Y121.962 E5.26368
G1 X81.144 Y121.323 E5.28674
G1 X80.9 Y120.689 E5.30933
G1 X80.816 Y120.449 E5.31779
G1 X80.743 Y120.233 E5.32537
G1 X80.658 Y119.973 E5.33447
G1 X80.634 Y119.901 E5.33699
G1 X80.391 Y119.14 E5.36356
G1 X80.345 Y118.992 E5.36872
G1 X80.125 Y118.268 E5.39389
G1 X79.932 Y117.543 E5.41884
G1 X79.836 Y117.127 E5.43304
G1 X79.785 Y116.896 E5.44091
G1 X79.592 Y115.969 E5.4724
G1 X79.568 Y115.852 E5.47637
G1 X79.443 Y115.217 E5.4979
G1 X79.317 Y114.428 E5.52447
G1 X79.254 Y113.913 E5.54173
G1 X79.231 Y113.702 E5.54879
G1 X79.15 Y112.914 E5.57514
G1 X79.136 Y112.775 E5.57978
G1 X79.066 Y111.997 E5.60577
G1 X79.027 Y111.339 E5.62769
G1 X79.021 Y111.138 E5.63438
G1 X79.017 Y110.919 E5.64166
G1 X79.014 Y110.615 E5.65177
G1 X79.013 Y110.506 E5.6554
G1 X79.013 Y109.642 E5.68414
G1 X79.014 Y109.476 E5.68966
G1 X79.024 Y108.814 E5.71168
G1 X79.051 Y108.202 E5.73205
G1 X79.071 Y107.92 E5.74146
G1 X79.1 Y107.582 E5.75274
G1 X79.204 Y106.562 E5.78684
G1 X79.222 Y106.396 E5.79239
G1 X79.312 Y105.629 E5.81808
G1 X79.399 Y105.03 E5.83821
G1 X79.441 Y104.788 E5.84638
G1 X79.509 Y104.43 E5.8585
G1 X79.731 Y103.362 E5.89478
G1 X79.766 Y103.203 E5.9002
G1 X79.919 Y102.518 E5.92354
G1 X80.069 Y101.924 E5.94392
G1 X80.147 Y101.648 E5.95346
G1 X80.25 Y101.305 E5.96537
G1 X80.592 Y100.23 E6.00289
G1 X80.644 Y100.071 E6.00845
G1 X80.842 Y99.48 E6.02918
G1 X81.051 Y98.908 E6.04944
G1 X81.16 Y98.634 E6.05925
G1 X81.296 Y98.309 E6.07096
G1 X81.724 Y97.326 E6.10662
G1 X81.796 Y97.163 E6.11255
G1 X82.093 Y96.51 E6.13641
G1 X82.345 Y95.992 E6.15557
G1 X82.477 Y95.738 E6.16509
G1 X82.659 Y95.403 E6.17777
G1 X83.189 Y94.464 E6.21363
G1 X83.279 Y94.306 E6.21968
G1 X83.625 Y93.716 E6.24243
G1 X83.928 Y93.23 E6.26148
G1 X84.067 Y93.019 E6.26988
G1 X84.272 Y92.718 E6.282
G1 X84.893 Y91.84 E6.31776
G1 X85.002 Y91.689 E6.32396
G1 X85.444 Y91.086 E6.34882
G1 X85.825 Y90.596 E6.36947
G1 X85.993 Y90.392 E6.37826
G1 X86.215 Y90.13 E6.38968
G1 X86.916 Y89.331 E6.42503
G1 X87.026 Y89.208 E6.43052
G1 X87.508 Y88.675 E6.45442
G1 X87.928 Y88.236 E6.47463
G0 F6000 X88.209 Y88.52
G1 F1200 X88.411 Y88.32 E6.48409
G1 X88.657 Y88.084 E6.49542
G1 X89.466 Y87.333 E6.53214
G1 X89.591 Y87.219 E6.53776
G1 X90.086 Y86.774 E6.5599
G1 X90.511 Y86.412 E6.57847
G1 X90.709 Y86.252 E6.58694
G1 X90.946 Y86.066 E6.59696
G1 X91.131 Y85.925 E6.6047
G1 X91.192 Y85.879 E6.60724
G1 X91.91 Y85.34 E6.6371
G1 X92.036 Y85.247 E6.64231
G1 X92.569 Y84.859 E6.66423
G1 X93.021 Y84.547 E6.6825
G1 X93.262 Y84.39 E6.69207
G1 X93.584 Y84.189 E6.70469
G1 X94.53 Y83.62 E6.74141
G1 X94.668 Y83.538 E6.74675
G1 X95.26 Y83.194 E6.76952
G1 X95.728 Y82.938 E6.78726
G1 X95.92 Y82.839 E6.79445
G1 X96.2 Y82.699 E6.80486
G1 X96.507 Y82.552 E6.81618
G1 X96.599 Y82.509 E6.81956
G1 X97.314 Y82.175 E6.84581
G1 X97.452 Y82.112 E6.85085
G1 X98.119 Y81.812 E6.87518
G1 X98.611 Y81.605 E6.89293
G1 X98.821 Y81.523 E6.90043
G1 X99.118 Y81.412 E6.91097
G1 X99.32 Y81.34 E6.91811
G1 X99.403 Y81.311 E6.92103
G1 X100.201 Y81.034 E6.94913
G1 X100.325 Y80.992 E6.95348
G1 X101.051 Y80.75 E6.97893
G1 X101.61 Y80.581 E6.99836
G1 X101.826 Y80.522 E7.00581
G1 X102.083 Y80.455 E7.01464
G1 X102.294 Y80.403 E7.02187
G1 X102.392 Y80.379 E7.02522
G1 X103.272 Y80.171 E7.0553
G1 X103.404 Y80.141 E7.0598
G1 X104.086 Y79.989 E7.08304
G1 X104.7 Y79.871 E7.10384
G1 X104.935 Y79.833 E7.11175
G1 X105.177 Y79.797 E7.11989
G1 X105.445 Y79.76 E7.12889
G1 X105.54 Y79.747 E7.13208
G1 X106.409 Y79.635 E7.16122
G1 X106.55 Y79.618 E7.16594
G1 X107.218 Y79.541 E7.18831
G1 X107.828 Y79.488 E7.20867
G1 X108.091 Y79.473 E7.21744
G1 X108.307 Y79.463 E7.22463
G1 X108.553 Y79.454 E7.23281
G1 X108.676 Y79.45 E7.23691
G1 X109.555 Y79.428 E7.26615
G1 X109.69 Y79.426 E7.27064
G1 X110.341 Y79.418 E7.2923
G1 X110.915 Y79.426 E7.31139
G1 X111.201 Y79.438 E7.32091
G1 X111.472 Y79.453 E7.32994
G1 X111.694 Y79.468 E7.33734
G1 X111.798 Y79.476 E7.34081
G1 X112.637 Y79.541 E7.3688
G1 X112.789 Y79.554 E7.37387
G1 X113.517 Y79.621 E7.39819
G1 X114.088 Y79.689 E7.41731
G1 X114.36 Y79.729 E7.42646
G1 X114.642 Y79.774 E7.43595
G1 X114.871 Y79.814 E7.44369
G1 X114.95 Y79.828 E7.44636
G1 X115.772 Y79.978 E7.47415
G1 X115.903 Y80.003 E7.47858
G1 X116.619 Y80.143 E7.50285
G1 X117.255 Y80.288 E7.52454
G1 X117.497 Y80.351 E7.53286
G1 X117.768 Y80.425 E7.5422
G1 X118.8 Y80.723 E7.57793
G1 X118.945 Y80.766 E7.58296
G1 X119.635 Y80.976 E7.60695
G1 X120.231 Y81.177 E7.62787
G1 X120.447 Y81.257 E7.63553
G1 X120.681 Y81.347 E7.64387
G1 X120.925 Y81.444 E7.6526
G1 X120.999 Y81.474 E7.65526
G1 X121.821 Y81.808 E7.68477
G1 X121.978 Y81.873 E7.69042
G1 X122.599 Y82.137 E7.71286
G1 X123.106 Y82.368 E7.7314
G1 X123.37 Y82.497 E7.74117
G1 X123.685 Y82.658 E7.75293
G1 X124.648 Y83.169 E7.78919
