;FLAVOR:Marlin
;TIME:1918
;Filament used: 1.10082m
;Layer height: 0.2
;MINX:81.023
;MINY:81.023
;MINZ:0.2
;MAXX:138.977
;MAXY:138.977
;MAXZ:10
;Generated with Cura_SteamEngine 4.3.0
M140 S60
M105
M190 S60
M104 S200
M105
M109 S200
M82 ;absolute extrusion mode
M201 X500.00 Y500.00 Z100.00 E5000.00 ;Setup machine max acceleration
M203 X500.00 Y500.00 Z10.00 E50.00 ;Setup machine max feedrate
M204 P500.00 R1000.00 T500.00 ;Setup Print/Retract/Travel acceleration
M205 X8.00 Y8.00 Z0.40 E5.00 ;Setup Jerk
M220 S100 ;Reset Feedrate
M221 S100 ;Reset Flowrate

G28 ;Home

G92 E0 ;Reset Extruder
G1 Z2.0 F3000 ;Move Z Axis up
G1 X10.1 Y20 Z0.28 F5000.0 ;Move to start position
G1 X10.1 Y200.0 Z0.28 F1500.0 E15 ;Draw the first line
G1 X10.4 Y200.0 Z0.28 F5000.0 ;Move to side a little
G1 X10.4 Y20 Z0.28 F1500.0 E30 ;Draw the second line
G92 E0 ;Reset Extruder
G1 Z2.0 F3000 ;Move Z Axis up

G92 E0
G92 E0
G1 F1500 E-1.4
;LAYER_COUNT:50
;LAYER:0
M107
G0 F6000 X89.353 Y89.682 Z0.2
;TYPE:SKIRT
G1 F1500 E0
G1 F1200 X89.817 Y89.218 E0.02183
G1 X89.919 Y89.117 E0.0266
G1 X90.345 Y88.702 E0.04638
G1 X91.087 Y88.042 E0.07941
G1 X91.816 Y87.45 E0.11064
G1 X91.967 Y87.329 E0.11708
G1 X92.447 Y86.953 E0.13736
G1 X92.576 Y86.854 E0.14277
G1 X93.067 Y86.481 E0.16328
G1 X93.861 Y85.931 E0.1954
G1 X94.714 Y85.394 E0.22893
G1 X94.892 Y85.284 E0.23589
G1 X95.313 Y85.03 E0.25224
G1 X95.43 Y84.96 E0.25677
G1 X96.02 Y84.614 E0.27952
G1 X96.896 Y84.152 E0.31246
G1 X97.764 Y83.743 E0.34438
G1 X97.933 Y83.666 E0.35055
G1 X98.43 Y83.442 E0.36869
G1 X98.58 Y83.376 E0.37414
G1 X99.199 Y83.108 E0.39657
G1 X100.112 Y82.759 E0.42908
G1 X100.982 Y82.471 E0.45956
G1 X101.162 Y82.413 E0.46585
G1 X101.742 Y82.232 E0.48606
G1 X101.911 Y82.181 E0.49193
G1 X102.512 Y82.004 E0.51277
G1 X103.432 Y81.776 E0.54429
G1 X104.432 Y81.573 E0.57823
G1 X104.624 Y81.536 E0.58474
G1 X105.101 Y81.448 E0.60087
G1 X105.267 Y81.418 E0.60648
G1 X105.931 Y81.306 E0.62888
G1 X106.909 Y81.186 E0.66165
G1 X107.913 Y81.108 E0.69514
G1 X108.1 Y81.095 E0.70138
G1 X108.595 Y81.065 E0.71787
G1 X108.745 Y81.057 E0.72287
G1 X109.428 Y81.025 E0.74561
G1 X110.415 Y81.023 E0.77844
G1 X111.346 Y81.063 E0.80943
G1 X111.53 Y81.073 E0.81556
G1 X112.099 Y81.107 E0.83452
G1 X112.258 Y81.117 E0.83982
G1 X112.904 Y81.165 E0.86136
G1 X113.878 Y81.282 E0.89399
G1 X114.897 Y81.45 E0.92834
G1 X115.09 Y81.483 E0.93485
G1 X115.543 Y81.566 E0.95017
G1 X115.685 Y81.593 E0.95498
G1 X116.376 Y81.729 E0.9784
G1 X117.347 Y81.966 E1.01165
G1 X118.227 Y82.224 E1.04215
G1 X118.41 Y82.28 E1.04851
G1 X118.977 Y82.457 E1.06827
G1 X119.106 Y82.498 E1.07277
G1 X119.723 Y82.699 E1.09435
G1 X120.659 Y83.051 E1.12761
G1 X121.562 Y83.439 E1.1603
G1 X121.745 Y83.52 E1.16696
G1 X122.188 Y83.72 E1.18312
G1 X122.299 Y83.771 E1.18719
G1 X122.94 Y84.069 E1.2107
G1 X123.831 Y84.534 E1.24413
G1 X124.674 Y85.024 E1.27656
G1 X124.84 Y85.122 E1.28297
G1 X125.326 Y85.416 E1.30186
G1 X125.438 Y85.485 E1.30624
G1 X125.961 Y85.81 E1.32672
G1 X126.786 Y86.376 E1.35999
G1 X127.559 Y86.96 E1.39221
G1 X127.71 Y87.076 E1.39855
G1 X128.171 Y87.437 E1.41802
G1 X128.295 Y87.536 E1.4233
G1 X128.786 Y87.932 E1.44428
G1 X129.519 Y88.579 E1.4768
G1 X130.179 Y89.216 E1.50731
G1 X130.318 Y89.353 E1.5138
G1 X130.77 Y89.805 E1.53506
G1 X130.868 Y89.904 E1.53969
G1 X131.295 Y90.342 E1.56004
G1 X131.959 Y91.088 E1.59325
G1 X132.546 Y91.811 E1.62423
G1 X132.662 Y91.957 E1.63043
G1 X133.036 Y92.434 E1.65059
G1 X133.138 Y92.565 E1.65611
G1 X133.518 Y93.065 E1.677
G1 X134.069 Y93.861 E1.7092
G1 X134.606 Y94.714 E1.74272
G1 X134.711 Y94.884 E1.74937
G1 X134.96 Y95.296 E1.76538
G1 X135.037 Y95.425 E1.77038
G1 X135.388 Y96.024 E1.79347
G1 X135.848 Y96.896 E1.82626
G1 X136.257 Y97.764 E1.85818
G1 X136.334 Y97.933 E1.86435
G1 X136.558 Y98.43 E1.88248
G1 X136.623 Y98.575 E1.88777
G1 X136.89 Y99.191 E1.9101
G1 X137.24 Y100.109 E1.94278
G1 X137.529 Y100.982 E1.97336
G1 X137.587 Y101.162 E1.97965
G1 X137.768 Y101.742 E1.99986
G1 X137.819 Y101.911 E2.00573
G1 X137.996 Y102.512 E2.02657
G1 X138.224 Y103.432 E2.05809
G1 X138.427 Y104.432 E2.09203
G1 X138.464 Y104.624 E2.09854
G1 X138.552 Y105.101 E2.11467
G1 X138.581 Y105.262 E2.12011
G1 X138.693 Y105.924 E2.14244
G1 X138.814 Y106.909 E2.17545
G1 X138.892 Y107.915 E2.20901
G1 X138.904 Y108.089 E2.21481
G1 X138.934 Y108.576 E2.23104
G1 X138.943 Y108.742 E2.23657
G1 X138.975 Y109.431 E2.25951
G1 X138.977 Y110.412 E2.29214
G1 X138.937 Y111.345 E2.3232
G1 X138.927 Y111.53 E2.32936
G1 X138.893 Y112.099 E2.34832
G1 X138.883 Y112.258 E2.35362
G1 X138.835 Y112.904 E2.37516
G1 X138.718 Y113.878 E2.40779
G1 X138.55 Y114.897 E2.44214
G1 X138.518 Y115.082 E2.44838
G1 X138.437 Y115.526 E2.4634
G1 X138.409 Y115.674 E2.46841
G1 X138.272 Y116.371 E2.49203
G1 X138.034 Y117.345 E2.52538
G1 X137.775 Y118.228 E2.55599
G1 X137.722 Y118.404 E2.5621
G1 X137.55 Y118.956 E2.58133
G1 X137.508 Y119.088 E2.58594
G1 X137.303 Y119.718 E2.60797
G1 X136.949 Y120.658 E2.64138
G1 X136.56 Y121.563 E2.67414
G1 X136.482 Y121.741 E2.68061
G1 X136.289 Y122.169 E2.69622
G1 X136.236 Y122.285 E2.70046
G1 X135.931 Y122.941 E2.72453
G1 X135.466 Y123.831 E2.75792
G1 X134.976 Y124.674 E2.79036
G1 X134.883 Y124.832 E2.79645
G1 X134.598 Y125.304 E2.81479
G1 X134.522 Y125.428 E2.81963
G1 X134.188 Y125.965 E2.84066
G1 X133.625 Y126.784 E2.87372
G1 X133.045 Y127.552 E2.90573
G1 X132.928 Y127.704 E2.91211
G1 X132.578 Y128.151 E2.93099
G1 X132.482 Y128.272 E2.93613
G1 X132.071 Y128.782 E2.95791
G1 X131.422 Y129.518 E2.99055
G1 X130.792 Y130.171 E3.02073
G1 X130.654 Y130.311 E3.02727
G1 X130.209 Y130.756 E3.0482
G1 X130.113 Y130.851 E3.05269
G1 X129.661 Y131.292 E3.07369
G1 X128.912 Y131.959 E3.10705
G1 X128.189 Y132.546 E3.13803
G1 X128.043 Y132.662 E3.14423
G1 X127.566 Y133.036 E3.16439
G1 X127.435 Y133.138 E3.16991
G1 X126.935 Y133.518 E3.1908
G1 X126.139 Y134.069 E3.223
G1 X125.286 Y134.606 E3.25652
G1 X125.117 Y134.711 E3.26314
G1 X124.72 Y134.951 E3.27857
G1 X124.593 Y135.026 E3.28348
G1 X123.979 Y135.386 E3.30715
G1 X123.104 Y135.848 E3.34006
G1 X122.236 Y136.257 E3.37197
G1 X122.067 Y136.334 E3.37815
G1 X121.57 Y136.558 E3.39628
G1 X121.42 Y136.624 E3.40173
G1 X120.801 Y136.892 E3.42417
G1 X119.888 Y137.241 E3.45668
G1 X119.018 Y137.529 E3.48716
G1 X118.838 Y137.587 E3.49345
G1 X118.258 Y137.768 E3.51366
G1 X118.089 Y137.819 E3.51953
G1 X117.488 Y137.996 E3.54037
G1 X116.568 Y138.224 E3.57189
G1 X115.568 Y138.427 E3.60583
G1 X115.376 Y138.464 E3.61233
G1 X114.899 Y138.552 E3.62847
G1 X114.733 Y138.582 E3.63408
G1 X114.069 Y138.694 E3.65647
G1 X113.091 Y138.814 E3.68925
G1 X112.087 Y138.892 E3.72274
G1 X111.9 Y138.905 E3.72897
G1 X111.405 Y138.935 E3.74547
G1 X111.255 Y138.943 E3.75046
G1 X110.572 Y138.975 E3.77321
G1 X109.585 Y138.977 E3.80603
G1 X108.654 Y138.937 E3.83703
G1 X108.47 Y138.927 E3.84316
G1 X107.901 Y138.893 E3.86211
G1 X107.742 Y138.883 E3.86741
G1 X107.096 Y138.835 E3.88896
G1 X106.122 Y138.718 E3.92159
G1 X105.103 Y138.55 E3.95594
G1 X104.91 Y138.517 E3.96245
G1 X104.457 Y138.434 E3.97777
G1 X104.315 Y138.407 E3.98257
G1 X103.624 Y138.271 E4.006
G1 X102.653 Y138.034 E4.03924
G1 X101.773 Y137.776 E4.06974
G1 X101.59 Y137.72 E4.07611
G1 X101.023 Y137.543 E4.09586
G1 X100.894 Y137.502 E4.10037
G1 X100.277 Y137.301 E4.12195
G1 X99.341 Y136.949 E4.15521
G1 X98.438 Y136.561 E4.1879
G1 X98.255 Y136.48 E4.19455
G1 X97.812 Y136.28 E4.21072
G1 X97.7 Y136.228 E4.21483
G1 X97.057 Y135.929 E4.23841
G1 X96.166 Y135.464 E4.27184
G1 X95.325 Y134.975 E4.3042
G1 X95.16 Y134.878 E4.31056
G1 X94.674 Y134.584 E4.32945
G1 X94.562 Y134.515 E4.33383
G1 X94.039 Y134.19 E4.35431
G1 X93.214 Y133.624 E4.38759
G1 X92.441 Y133.04 E4.41981
G1 X92.29 Y132.924 E4.42614
G1 X91.829 Y132.563 E4.44562
G1 X91.701 Y132.461 E4.45106
G1 X91.208 Y132.063 E4.47213
G1 X90.479 Y131.419 E4.50449
G1 X89.821 Y130.784 E4.5349
G1 X89.682 Y130.647 E4.54139
G1 X89.23 Y130.195 E4.56265
G1 X89.132 Y130.096 E4.56729
G1 X88.705 Y129.658 E4.58763
G1 X88.041 Y128.912 E4.62085
G1 X87.454 Y128.189 E4.65182
G1 X87.338 Y128.043 E4.65803
G1 X86.964 Y127.566 E4.67819
G1 X86.862 Y127.435 E4.68371
G1 X86.482 Y126.935 E4.7046
G1 X85.931 Y126.139 E4.73679
G1 X85.394 Y125.286 E4.77032
G1 X85.284 Y125.108 E4.77728
G1 X85.03 Y124.687 E4.79363
G1 X84.959 Y124.568 E4.79824
G1 X84.612 Y123.976 E4.82106
G1 X84.151 Y123.101 E4.85396
G1 X83.743 Y122.235 E4.8858
G1 X83.666 Y122.067 E4.89195
G1 X83.442 Y121.57 E4.91008
G1 X83.376 Y121.42 E4.91553
G1 X83.108 Y120.801 E4.93796
G1 X82.759 Y119.888 E4.97047
G1 X82.471 Y119.018 E5.00095
G1 X82.413 Y118.838 E5.00724
G1 X82.232 Y118.258 E5.02745
G1 X82.181 Y118.089 E5.03332
G1 X82.004 Y117.488 E5.05416
G1 X81.776 Y116.568 E5.08569
G1 X81.573 Y115.568 E5.11962
G1 X81.536 Y115.376 E5.12613
G1 X81.448 Y114.899 E5.14226
G1 X81.418 Y114.733 E5.14787
G1 X81.306 Y114.069 E5.17027
G1 X81.186 Y113.091 E5.20304
G1 X81.108 Y112.087 E5.23653
G1 X81.095 Y111.9 E5.24277
G1 X81.065 Y111.405 E5.25926
G1 X81.057 Y111.256 E5.26423
G1 X81.025 Y110.575 E5.2869
G1 X81.023 Y109.588 E5.31973
G1 X81.063 Y108.655 E5.35079
G1 X81.073 Y108.47 E5.35695
G1 X81.107 Y107.901 E5.37591
G1 X81.117 Y107.742 E5.38121
G1 X81.165 Y107.096 E5.40275
G1 X81.282 Y106.122 E5.43538
G1 X81.45 Y105.103 E5.46973
G1 X81.483 Y104.91 E5.47624
G1 X81.566 Y104.457 E5.49156
G1 X81.592 Y104.321 E5.49617
G1 X81.727 Y103.633 E5.51949
G1 X81.966 Y102.655 E5.55297
G1 X82.225 Y101.772 E5.58358
G1 X82.279 Y101.592 E5.58983
G1 X82.459 Y101.015 E5.60993
G1 X82.501 Y100.885 E5.61448
G1 X82.698 Y100.28 E5.63564
G1 X83.051 Y99.342 E5.66897
G1 X83.44 Y98.437 E5.70174
G1 X83.52 Y98.255 E5.70835
G1 X83.72 Y97.812 E5.72451
G1 X83.771 Y97.701 E5.72858
G1 X84.069 Y97.06 E5.75209
G1 X84.534 Y96.169 E5.78552
G1 X85.024 Y95.326 E5.81795
G1 X85.121 Y95.162 E5.82428
G1 X85.427 Y94.656 E5.84395
G1 X85.501 Y94.536 E5.84864
G1 X85.814 Y94.033 E5.86835
G1 X86.376 Y93.214 E5.90138
G1 X86.96 Y92.441 E5.9336
G1 X87.081 Y92.284 E5.9402
G1 X87.448 Y91.816 E5.95998
G1 X87.539 Y91.702 E5.96483
G1 X87.929 Y91.218 E5.9855
G1 X88.579 Y90.481 E6.01819
G1 X89.216 Y89.821 E6.0487
G1 X89.353 Y89.682 E6.05519
G0 F6000 X89.636 Y89.965
G1 F1200 X90.198 Y89.403 E6.08162
G1 X90.624 Y88.988 E6.1014
G1 X91.339 Y88.352 E6.13323
G1 X92.068 Y87.76 E6.16446
G1 X92.213 Y87.644 E6.17064
G1 X92.693 Y87.268 E6.19092
G1 X92.818 Y87.172 E6.19616
G1 X93.309 Y86.799 E6.21667
G1 X94.074 Y86.27 E6.24761
G1 X94.927 Y85.733 E6.28113
G1 X95.098 Y85.627 E6.28782
G1 X95.519 Y85.373 E6.30418
G1 X95.633 Y85.305 E6.30859
G1 X96.223 Y84.959 E6.33134
G1 X97.067 Y84.514 E6.36307
G1 X97.935 Y84.105 E6.39499
G1 X98.097 Y84.03 E6.40093
G1 X98.594 Y83.806 E6.41906
G1 X98.738 Y83.743 E6.42429
G1 X99.357 Y83.475 E6.44672
G1 X100.238 Y83.139 E6.47808
G1 X101.108 Y82.851 E6.50856
G1 X101.281 Y82.795 E6.51461
G1 X101.861 Y82.614 E6.53482
G1 X102.024 Y82.565 E6.54048
G1 X102.625 Y82.388 E6.56132
G1 X103.511 Y82.168 E6.59168
G1 X104.511 Y81.965 E6.62562
G1 X104.697 Y81.929 E6.63192
G1 X105.174 Y81.841 E6.64805
G1 X105.334 Y81.813 E6.65346
G1 X105.998 Y81.701 E6.67585
G1 X106.94 Y81.585 E6.70742
G1 X107.944 Y81.507 E6.74091
G1 X108.124 Y81.494 E6.74692
G1 X108.619 Y81.464 E6.76341
G1 X108.764 Y81.457 E6.76824
G1 X109.447 Y81.425 E6.79098
G1 X110.398 Y81.423 E6.82261
G1 X111.329 Y81.463 E6.8536
G1 X111.506 Y81.472 E6.8595
G1 X112.075 Y81.506 E6.87846
G1 X112.228 Y81.516 E6.88356
G1 X112.874 Y81.564 E6.9051
G1 X113.813 Y81.676 E6.93656
G1 X114.832 Y81.844 E6.97091
G1 X115.018 Y81.877 E6.97719
G1 X115.471 Y81.96 E6.99251
G1 X115.608 Y81.986 E6.99714
G1 X116.299 Y82.122 E7.02057
G1 X117.234 Y82.35 E7.05258
G1 X118.114 Y82.608 E7.08308
G1 X118.291 Y82.662 E7.08923
G1 X118.858 Y82.839 E7.10899
G1 X118.982 Y82.878 E7.11331
G1 X119.599 Y83.079 E7.1349
G1 X120.501 Y83.419 E7.16696
G1 X121.404 Y83.807 E7.19965
G1 X121.581 Y83.885 E7.20608
G1 X122.024 Y84.085 E7.22225
G1 X122.131 Y84.134 E7.22616
G1 X122.772 Y84.432 E7.24967
G1 X123.63 Y84.88 E7.28186
G1 X124.473 Y85.37 E7.31429
G1 X124.633 Y85.464 E7.32047
G1 X125.119 Y85.758 E7.33936
G1 X125.227 Y85.825 E7.34359
G1 X125.75 Y86.15 E7.36407
G1 X126.545 Y86.695 E7.39612
G1 X127.318 Y87.279 E7.42835
G1 X127.463 Y87.391 E7.43444
G1 X127.924 Y87.752 E7.45392
G1 X128.044 Y87.847 E7.45901
G1 X128.535 Y88.243 E7.47999
G1 X129.241 Y88.867 E7.51133
G1 X129.901 Y89.504 E7.54183
G1 X130.035 Y89.636 E7.54809
G1 X130.487 Y90.088 E7.56935
G1 X130.582 Y90.184 E7.57384
G1 X131.009 Y90.622 E7.59419
G1 X131.648 Y91.34 E7.62616
G1 X132.235 Y92.063 E7.65713
G1 X132.348 Y92.204 E7.66314
G1 X132.722 Y92.681 E7.6833
G1 X132.819 Y92.807 E7.68859
G1 X133.199 Y93.307 E7.70948
G1 X133.73 Y94.074 E7.74051
G1 X134.267 Y94.927 E7.77403
G1 X134.369 Y95.091 E7.78045
G1 X134.618 Y95.503 E7.79646
G1 X134.692 Y95.627 E7.80127
G1 X135.043 Y96.226 E7.82436
G1 X135.486 Y97.067 E7.85597
G1 X135.895 Y97.935 E7.88789
G1 X135.97 Y98.097 E7.89383
G1 X136.194 Y98.594 E7.91196
G1 X136.256 Y98.734 E7.91705
G1 X136.523 Y99.35 E7.93938
G1 X136.86 Y100.235 E7.97088
G1 X137.149 Y101.108 E8.00146
G1 X137.205 Y101.281 E8.00751
G1 X137.386 Y101.861 E8.02772
G1 X137.435 Y102.024 E8.03338
G1 X137.612 Y102.625 E8.05422
G1 X137.832 Y103.511 E8.08458
G1 X138.035 Y104.511 E8.11852
G1 X138.071 Y104.697 E8.12482
G1 X138.159 Y105.174 E8.14095
G1 X138.186 Y105.329 E8.14619
G1 X138.298 Y105.991 E8.16852
G1 X138.415 Y106.94 E8.20032
G1 X138.493 Y107.946 E8.23388
G1 X138.505 Y108.113 E8.23945
G1 X138.535 Y108.6 E8.25568
G1 X138.544 Y108.76 E8.26101
G1 X138.576 Y109.449 E8.28395
G1 X138.577 Y110.395 E8.31541
G1 X138.537 Y111.328 E8.34647
G1 X138.528 Y111.506 E8.3524
G1 X138.494 Y112.075 E8.37136
G1 X138.484 Y112.228 E8.37646
G1 X138.436 Y112.874 E8.39801
G1 X138.324 Y113.813 E8.42946
G1 X138.156 Y114.832 E8.46381
G1 X138.125 Y115.01 E8.46982
G1 X138.044 Y115.454 E8.48483
G1 X138.017 Y115.596 E8.48964
G1 X137.88 Y116.293 E8.51326
G1 X137.65 Y117.232 E8.54542
G1 X137.391 Y118.115 E8.57602
G1 X137.34 Y118.285 E8.58193
G1 X137.168 Y118.837 E8.60116
G1 X137.128 Y118.964 E8.60558
G1 X136.923 Y119.594 E8.62762
G1 X136.581 Y120.5 E8.65983
G1 X136.192 Y121.405 E8.69259
G1 X136.117 Y121.576 E8.6988
G1 X135.924 Y122.004 E8.71442
G1 X135.873 Y122.116 E8.71851
G1 X135.568 Y122.772 E8.74257
G1 X135.12 Y123.63 E8.77477
G1 X134.63 Y124.473 E8.8072
G1 X134.54 Y124.625 E8.81307
G1 X134.255 Y125.097 E8.83141
G1 X134.182 Y125.216 E8.83605
G1 X133.848 Y125.753 E8.85709
G1 X133.306 Y126.543 E8.88895
G1 X132.726 Y127.311 E8.92096
G1 X132.613 Y127.458 E8.92713
G1 X132.263 Y127.905 E8.94601
G1 X132.17 Y128.021 E8.95096
G1 X131.759 Y128.531 E8.97274
G1 X131.134 Y129.24 E9.00418
G1 X130.504 Y129.893 E9.03436
G1 X130.371 Y130.028 E9.04066
G1 X129.926 Y130.473 E9.06159
G1 X129.833 Y130.565 E9.06594
G1 X129.381 Y131.006 E9.08695
G1 X128.66 Y131.648 E9.11906
G1 X127.937 Y132.235 E9.15003
G1 X127.796 Y132.348 E9.15604
G1 X127.319 Y132.722 E9.1762
G1 X127.193 Y132.819 E9.18149
G1 X126.693 Y133.199 E9.20238
G1 X125.926 Y133.73 E9.2334
G1 X125.073 Y134.267 E9.26693
G1 X124.91 Y134.368 E9.27331
G1 X124.513 Y134.608 E9.28874
G1 X124.39 Y134.681 E9.29349
G1 X123.776 Y135.041 E9.31717
G1 X122.933 Y135.486 E9.34887
G1 X122.065 Y135.895 E9.38079
G1 X121.903 Y135.97 E9.38672
G1 X121.406 Y136.194 E9.40486
G1 X121.262 Y136.257 E9.41008
G1 X120.643 Y136.525 E9.43252
G1 X119.762 Y136.861 E9.46388
G1 X118.892 Y137.149 E9.49436
G1 X118.719 Y137.205 E9.50041
G1 X118.139 Y137.386 E9.52062
G1 X117.976 Y137.435 E9.52628
G1 X117.375 Y137.612 E9.54712
G1 X116.489 Y137.832 E9.57748
G1 X115.489 Y138.035 E9.61142
G1 X115.303 Y138.071 E9.61772
